!!!COM: Clara Schumann
!!!CNT: Deutsch
!!!TXO: Deutsch
!!!OTL: Es fiel ein Reif
!!!LYR: Heine
!!!OPR: Volkslied
!!!OPS: No opus information available
!!!ONM: 
!!!ENC: Ben Fuhrman
!!!YOR: Frauen komponieren: 25 Lieder fu2r Singstimme und Klavier
!!!YOR: Mainz, B. Schott's So2hne, 1992.
!!!ODT: No specific year indicated
!!NB: Only vocal melody encoded.
!!NB: First instance of melodic material only encoded.
!!created: 2/16/10 3:30PM
!!proofed and posted: 2/16/10 3:30PM
**kern	**silbe
*clef G2	*
*k[b-e-a-d-]	*
*M9/8	*
*MM[Adagio]	*
=3	=3
4.r	.
4.r	.
4r	.
{8c	{Es
=4	=4
4c	fiel
8c	ein
8f	Reif
8f	in
8f	der
4g	Fru2h-
8g	-lings-
=5	=5
[2.cc	-nacht.
4cc]}	|}
{8a-	{Er
=6	=6
8cc	fiel
8a-	auf
8f	die
8e-	zar-
8e-	-ten
8f	Blau-
4a-	-blu2-
8g	-me-
=7	=7
4.b-}	-lein,}
4.r	.
4.r	.
=8	=8
4r	.
{8c	{Sie
4c	sind
8c	ver-
8a-	-wel-
8c	-ket,
16r	.
16g	ver-
=9	=9
(4.a-	-dor-
8g)}	-ret.}
8r	.
8r	.
4r	.
{8e-	{Ein
=10	=10
4e-	Ju2ng-
8e-	ling
8a-	hat-
8g	-te
8f	ein
4e-	Ma2d-
8e-	-chen
=11	=11
4.cc}	lieb,}
4.r	.
4r	.
{8e-	{sie
=12	=12
4a-	flo-
8a-	-hen
8dd-	heim-
8cc	-lich
8b-	von
4a-	Hau-
8a-	-se
=13	=13
[2.ff	fort,
4ff]}	|}
{8ff	{es
=14	=14
8ff	wusst's
8ff	we-
8ff	-der
4.ee-	Va-
4dd-	-ter
8cc	noch
=15	=15
8b-	Mut-
8a-}	-ter.}
8r	.
4.r	.
4.r	.
!! Rest to measure 18
=18	=18
4.r	.
4.r	.
4r	.
{8c	{Sie
=19	=19
4c	sing
8c	ge-
4f	-wan-
8f	-dert
4g	hin-
8g	und
=20	=20
4cc}	her.}
8r	.
4.r	.
4.r	.
=21	=21
4r	.
{8f	{Sie
8a-	ha-
8a-	-be
8g	ge-
8b-	-habt
8b-	we-
8a-	-der
=22	=22
4dd-	Glu2ck
8cc	noch
4.b-}	Stern,}
4.r	.
=23	=23
4.r	.
8r	.
8r	.
{8a-	{sie
4a-	sind
8a-	ge-
=24	=24
4a-	-stor-
8e-	-ben,
4.r	.
8r	.
8r	.
8d-	ver-
=25	=25
[2.c	-dor-
4.c]	|
=26	=26
2.c}	-ben.}
4.r	.
==	==
*-	*-
